X: 26236
T: Meelick Team, The
R: jig
M: 6/8
K: Edorian
|:A|B2 E dBA|BAG EDB,|DEG Eed|BAG ABd|
e2 e dBA|BAG EDB,|DEG Eed|BAG E2:|
|:A|Bef gfe|Beg fed|Beg beg|fed e2 f|
gfg edB|AFD EFA|d2 d fed|BAF E2:|

